packages/core/src/svgs/tokens/mono/SHFT.svg

<svg width="24" height="24" viewBox="0 0 24 24" fill="none" xmlns="http://www.w3.org/2000/svg">
<path d="M18.3156 11.2317V16.2475C18.1473 19.4948 15.3789 22 12 22C8.62112 22 5.85275 19.4579 5.68433 16.2106V16.1211C5.68433 15.9117 5.7675 15.7109 5.91556 15.5628C6.06361 15.4148 6.26441 15.3317 6.47379 15.3317C6.68317 15.3317 6.88397 15.4148 7.03202 15.5628C7.18008 15.7109 7.26325 15.9117 7.26325 16.1211V16.3895C7.5264 18.7 9.5632 20.421 12 20.421C14.4368 20.421 16.4736 18.7842 16.7367 16.4738V11.858L14.1053 9.29491V8.41071C14.1053 7.27915 13.1578 6.21075 12 6.21075C10.8421 6.21075 9.89478 7.27915 9.89478 8.41071V10.9159L12.7894 13.7948V15.9106C12.7894 16.3316 12.4368 16.7368 12 16.7368C11.5632 16.7368 11.2105 16.3369 11.2105 15.9106V14.4369L8.57902 11.7896V7.78968C8.71586 6.06865 10.2001 4.63184 12 4.63184C12.8606 4.63896 13.6879 4.96632 14.3203 5.55012C14.9527 6.13392 15.3451 6.93232 15.421 7.78968V8.3844L18.3156 11.2265V11.2317Z" fill="white"/>
<path d="M17.5262 8.15782C17.9631 8.15782 18.3209 7.79994 18.2631 7.36837C18.037 5.87094 17.2799 4.50475 16.1301 3.51919C14.9802 2.53363 13.5144 1.99444 12 2.00004C8.51586 2.00004 5.68433 4.75263 5.68433 8.15782V12.7472L8.57902 15.5999V16.1682C8.65414 17.0297 9.04502 17.8328 9.67655 18.4235C10.308 19.0142 11.1355 19.3507 12 19.3681C12.8604 19.3599 13.6869 19.0321 14.3191 18.4486C14.9513 17.865 15.344 17.0673 15.421 16.2103V12.4209L12.7894 9.81575V8.0473C12.7881 7.94363 12.7663 7.84124 12.7253 7.746C12.6844 7.65074 12.6251 7.56449 12.5508 7.49216C12.4765 7.41983 12.3887 7.36283 12.2924 7.32443C12.1961 7.28604 12.0931 7.26698 11.9895 7.26837C11.8858 7.26975 11.7834 7.29154 11.6882 7.33249C11.5929 7.37344 11.5067 7.43276 11.4344 7.50704C11.362 7.58133 11.3051 7.66913 11.2666 7.76544C11.2282 7.86175 11.2092 7.96469 11.2105 8.06836V10.4315L14.1053 13.3261V15.8787C14.0841 16.9998 13.1474 17.7892 12 17.7892C10.8527 17.7892 9.92106 16.9577 9.90534 15.8419H9.89478V14.7051L7.26325 12.1578V8.15782C7.26325 5.60524 9.38426 3.57896 12 3.57896C13.098 3.56658 14.1658 3.93864 15.0184 4.6307C15.8711 5.32276 16.4546 6.29124 16.6683 7.36837C16.742 7.79994 17.0894 8.15782 17.5262 8.15782Z" fill="white"/>
</svg>

<svg xmlns="http://www.w3.org/2000/svg" width="24" height="24" fill="none" viewBox="0 0 24 24">
    <path fill="#fff" d="M18.316 11.232v5.015C18.147 19.496 15.379 22 12 22s-6.147-2.542-6.316-5.79v-.089a.79.79 0 0 1 1.58 0v.269c.262 2.31 2.3 4.031 4.736 4.031s4.474-1.637 4.737-3.947v-4.616l-2.632-2.563V8.41c0-1.132-.947-2.2-2.105-2.2s-2.105 1.068-2.105 2.2v2.505l2.894 2.879v2.116c0 .42-.352.826-.789.826s-.79-.4-.79-.826v-1.474L8.58 11.79v-4C8.716 6.069 10.2 4.632 12 4.632a3.463 3.463 0 0 1 3.421 3.158v.594l2.895 2.842z"/>
    <path fill="#fff" d="M17.526 8.158c.437 0 .795-.358.737-.79A6.31 6.31 0 0 0 12 2C8.516 2 5.684 4.753 5.684 8.158v4.59L8.58 15.6v.568a3.505 3.505 0 0 0 3.421 3.2 3.47 3.47 0 0 0 3.421-3.158v-3.79L12.79 9.816V8.047a.787.787 0 0 0-.8-.779.79.79 0 0 0-.779.8v2.364l2.895 2.894v2.553c-.02 1.12-.958 1.91-2.105 1.91s-2.079-.831-2.095-1.947h-.01v-1.137l-2.632-2.547v-4c0-2.553 2.121-4.579 4.737-4.579a4.705 4.705 0 0 1 4.668 3.79c.074.43.421.789.858.789"/>
</svg>
